X:675
T: Glassan
S: B.Breathnach:"Ceol Rince na hEireann" IV/63 (gan ainm)
Z: B.Black
L: 1/8
M: 12/8
Q: 360
R: jig
K: D
B|AFD F2D E2F G2B|AFD F2D E3 B3|
AFD F2D E2F G2A|Bcd cBA B3 B2 :|
A|d2d c2B A2A B2c|d2d c2B A3 B2c|
d2d c2B A2A B3|AFD F2D B3 B2 :|
